;FLAVOR:Marlin
;TIME:2648
;Filament used: 0.339869m
;Layer height: 0.1
;MINX:136.797
;MINY:136.044
;MINZ:0.3
;MAXX:163.203
;MAXY:160.728
;MAXZ:22
;Generated with Cura_SteamEngine 5.3.0
M140 S60
M105
M190 S60
M104 S210
M105
M109 S210
M82 ;absolute extrusion mode
M201 X500.00 Y500.00 Z100.00 E5000.00 ;Setup machine max acceleration
M203 X500.00 Y500.00 Z10.00 E50.00 ;Setup machine max feedrate
M204 P500.00 R1000.00 T500.00 ;Setup Print/Retract/Travel acceleration
M205 X8.00 Y8.00 Z0.40 E5.00 ;Setup Jerk
M220 S100 ;Reset Feedrate
M221 S100 ;Reset Flowrate

G28 ;Home

G92 E0 ;Reset Extruder
G1 Z2.0 F3000 ;Move Z Axis up
G1 X10.1 Y20 Z0.28 F5000.0 ;Move to start position
G1 X10.1 Y200.0 Z0.28 F1500.0 E15 ;Draw the first line
G1 X10.4 Y200.0 Z0.28 F5000.0 ;Move to side a little
G1 X10.4 Y20 Z0.28 F1500.0 E30 ;Draw the second line
G92 E0 ;Reset Extruder
G1 Z2.0 F3000 ;Move Z Axis up

G92 E0
G92 E0
G1 F2400 E-3
;LAYER_COUNT:218
;LAYER:0
M107
G0 F6000 X141.124 Y140.164 Z0.3
;TYPE:SKIRT
G1 F2400 E0
G1 F1200 X141.802 Y139.567 E0.04507
G1 X142.529 Y139.032 E0.0901
G1 X143.301 Y138.563 E0.13517
G1 X144.112 Y138.164 E0.18026
G1 X144.954 Y137.839 E0.22529
G1 X145.822 Y137.59 E0.27034
G1 X146.754 Y137.411 E0.31769
G1 X147.2 Y137.347 E0.34017
G1 X148.099 Y137.259 E0.38523
G1 X148.649 Y137.244 E0.41268
G1 X151.333 Y137.244 E0.54659
G1 X152.235 Y137.284 E0.59163
G1 X152.751 Y137.343 E0.61754
G1 X153.214 Y137.408 E0.64087
G1 X154.102 Y137.573 E0.68593
G1 X154.972 Y137.816 E0.731
G1 X155.817 Y138.135 E0.77606
G1 X156.63 Y138.527 E0.82109
G1 X157.406 Y138.99 E0.86617
G1 X158.137 Y139.52 E0.91122
G1 X158.819 Y140.112 E0.95627
G1 X159.446 Y140.762 E1.00133
G1 X160.013 Y141.465 E1.04639
G1 X160.515 Y142.216 E1.09145
G1 X160.949 Y143.008 E1.13651
G1 X161.311 Y143.835 E1.18155
G1 X161.599 Y144.691 E1.22661
G1 X161.81 Y145.569 E1.27166
G1 X161.942 Y146.462 E1.3167
G1 X161.992 Y147.216 E1.35439
G1 X162.003 Y147.889 E1.38798
G1 X161.989 Y149.289 E1.45783
G1 X161.94 Y150.191 E1.50289
G1 X161.812 Y151.085 E1.54795
G1 X161.605 Y151.964 E1.593
G1 X161.321 Y152.821 E1.63804
G1 X160.962 Y153.65 E1.68312
G1 X160.531 Y154.444 E1.72819
G1 X160.032 Y155.196 E1.77321
G1 X159.468 Y155.902 E1.8183
G1 X158.844 Y156.554 E1.86332
G1 X158.165 Y157.15 E1.9084
G1 X157.436 Y157.682 E1.95342
G1 X156.662 Y158.148 E1.99849
G1 X155.85 Y158.544 E2.04357
G1 X155.007 Y158.867 E2.0886
G1 X154.138 Y159.113 E2.13366
G1 X153.096 Y159.303 E2.18651
G1 X152.461 Y159.385 E2.21845
G1 X152.047 Y159.43 E2.23922
G1 X151.375 Y159.489 E2.27288
G1 X150.483 Y159.528 E2.31742
G1 X149.49 Y159.528 E2.36697
G1 X148.616 Y159.491 E2.41061
G1 X147.767 Y159.418 E2.45312
G1 X147.156 Y159.346 E2.48382
G1 X146.728 Y159.283 E2.5054
G1 X145.841 Y159.112 E2.55047
G1 X144.973 Y158.864 E2.5955
G1 X144.13 Y158.539 E2.64058
G1 X143.319 Y158.141 E2.68565
G1 X142.547 Y157.673 E2.73069
G1 X141.819 Y157.139 E2.77573
G1 X141.141 Y156.542 E2.8208
G1 X140.518 Y155.888 E2.86586
G1 X139.956 Y155.181 E2.91092
G1 X139.459 Y154.427 E2.95598
G1 X139.03 Y153.632 E3.00105
G1 X138.673 Y152.803 E3.04608
G1 X138.391 Y151.945 E3.09114
G1 X138.186 Y151.065 E3.13621
G1 X138.06 Y150.171 E3.18126
G1 X138.015 Y149.4 E3.21979
G1 X137.997 Y148.339 E3.27273
G1 X138.003 Y147.44 E3.31758
G1 X138.049 Y146.538 E3.36264
G1 X138.175 Y145.644 E3.40768
G1 X138.379 Y144.764 E3.45275
G1 X138.66 Y143.906 E3.49779
G1 X139.016 Y143.076 E3.54285
G1 X139.444 Y142.281 E3.5879
G1 X139.941 Y141.526 E3.63299
G1 X140.503 Y140.819 E3.67805
G1 X141.124 Y140.164 E3.72308
G0 F6000 X140.86 Y139.864
G1 F1200 X141.565 Y139.245 E3.76989
G1 X142.321 Y138.69 E3.81668
G1 X143.124 Y138.204 E3.86351
G1 X143.935 Y137.805 E3.9086
G1 X144.81 Y137.466 E3.95541
G1 X145.747 Y137.197 E4.00405
G1 X146.697 Y137.015 E4.05231
G1 X147.161 Y136.949 E4.07569
G1 X148.088 Y136.859 E4.12215
G1 X148.638 Y136.844 E4.1496
G1 X151.351 Y136.844 E4.28496
G1 X152.253 Y136.884 E4.33
G1 X152.807 Y136.947 E4.35782
G1 X153.287 Y137.015 E4.38201
G1 X154.21 Y137.188 E4.42886
G1 X155.08 Y137.431 E4.47392
G1 X155.991 Y137.775 E4.5225
G1 X156.835 Y138.183 E4.56927
G1 X157.611 Y138.646 E4.61436
G1 X158.372 Y139.196 E4.6612
G1 X159.107 Y139.834 E4.70976
G1 X159.734 Y140.484 E4.75481
G1 X160.346 Y141.243 E4.80346
G1 X160.848 Y141.994 E4.84852
G1 X161.3 Y142.816 E4.89532
G1 X161.69 Y143.707 E4.94385
G1 X161.988 Y144.598 E4.99072
G1 X162.206 Y145.511 E5.03755
G1 X162.338 Y146.404 E5.08259
G1 X162.392 Y147.209 E5.12284
G1 X162.403 Y147.893 E5.15697
G1 X162.388 Y149.311 E5.22772
G1 X162.336 Y150.248 E5.27454
G1 X162.208 Y151.142 E5.31959
G1 X161.985 Y152.09 E5.36818
G1 X161.701 Y152.947 E5.41322
G1 X161.314 Y153.841 E5.46182
G1 X160.883 Y154.635 E5.5069
G1 X160.345 Y155.446 E5.55545
G1 X159.781 Y156.152 E5.60053
G1 X159.108 Y156.855 E5.64909
G1 X158.429 Y157.451 E5.69416
G1 X157.642 Y158.025 E5.74276
G1 X156.837 Y158.508 E5.78959
G1 X155.993 Y158.918 E5.83641
G1 X155.15 Y159.241 E5.88145
G1 X154.21 Y159.507 E5.93018
G1 X153.147 Y159.7 E5.98408
G1 X152.504 Y159.783 E6.01643
G1 X151.392 Y159.889 E6.07216
G1 X150.5 Y159.928 E6.1167
G1 X149.473 Y159.928 E6.16794
G1 X148.582 Y159.89 E6.21243
G1 X147.72 Y159.815 E6.2556
G1 X147.098 Y159.742 E6.28685
G1 X146.652 Y159.676 E6.30934
G1 X145.731 Y159.497 E6.35615
G1 X144.863 Y159.249 E6.40119
G1 X143.954 Y158.898 E6.4498
G1 X143.112 Y158.483 E6.49663
G1 X142.31 Y157.996 E6.54344
G1 X141.582 Y157.462 E6.58849
G1 X140.851 Y156.818 E6.63709
G1 X140.228 Y156.164 E6.68215
G1 X139.622 Y155.401 E6.73076
G1 X139.107 Y154.617 E6.77756
G1 X138.678 Y153.822 E6.82263
G1 X138.293 Y152.928 E6.87119
G1 X138.001 Y152.036 E6.91802
G1 X137.796 Y151.156 E6.9631
G1 X137.664 Y150.227 E7.00991
G1 X137.615 Y149.407 E7.05089
G1 X137.597 Y148.336 E7.10433
G1 X137.604 Y147.42 E7.15004
G1 X137.653 Y146.482 E7.1969
G1 X137.785 Y145.554 E7.24366
G1 X137.989 Y144.674 E7.28873
G1 X138.292 Y143.748 E7.33734
G1 X138.648 Y142.918 E7.38239
G1 X139.092 Y142.091 E7.42922
G1 X139.628 Y141.277 E7.47785
G1 X140.19 Y140.57 E7.52291
G1 X140.86 Y139.864 E7.57146
G0 F6000 X140.596 Y139.563
G1 F1200 X141.301 Y138.944 E7.61827
G1 X142.114 Y138.348 E7.66856
G1 X142.947 Y137.845 E7.71711
G1 X143.79 Y137.432 E7.76394
G1 X144.665 Y137.093 E7.81076
G1 X145.672 Y136.804 E7.86303
G1 X146.641 Y136.619 E7.91224
G1 X147.122 Y136.551 E7.93648
G1 X148.077 Y136.459 E7.98435
G1 X148.627 Y136.444 E8.0118
G1 X151.369 Y136.444 E8.14859
G1 X152.271 Y136.484 E8.19364
G1 X152.863 Y136.551 E8.22336
G1 X153.361 Y136.622 E8.24846
G1 X154.284 Y136.795 E8.29531
G1 X155.188 Y137.046 E8.34212
G1 X156.165 Y137.415 E8.39422
G1 X157.04 Y137.839 E8.44273
G1 X157.816 Y138.302 E8.48781
G1 X158.634 Y138.894 E8.53819
G1 X159.395 Y139.556 E8.58851
G1 X160.022 Y140.206 E8.63357
G1 X160.679 Y141.021 E8.68579
G1 X161.199 Y141.801 E8.73256
G1 X161.651 Y142.623 E8.77936
G1 X162.069 Y143.58 E8.83146
G1 X162.377 Y144.505 E8.8801
G1 X162.602 Y145.453 E8.92871
G1 X162.734 Y146.346 E8.97375
G1 X162.792 Y147.203 E9.0166
G1 X162.803 Y147.897 E9.05123
G1 X162.787 Y149.333 E9.12288
G1 X162.732 Y150.305 E9.17145
G1 X162.604 Y151.199 E9.21651
G1 X162.365 Y152.216 E9.26863
G1 X162.081 Y153.073 E9.31367
G1 X161.666 Y154.032 E9.3658
G1 X161.235 Y154.826 E9.41087
G1 X160.658 Y155.696 E9.46296
G1 X160.094 Y156.402 E9.50804
G1 X159.372 Y157.156 E9.56012
G1 X158.693 Y157.752 E9.6052
G1 X157.848 Y158.368 E9.65737
G1 X157.012 Y158.868 E9.70596
G1 X156.136 Y159.292 E9.75452
G1 X155.293 Y159.615 E9.79956
G1 X154.281 Y159.901 E9.85202
G1 X153.198 Y160.097 E9.90693
G1 X152.542 Y160.181 E9.93993
G1 X151.409 Y160.289 E9.99671
G1 X150.517 Y160.328 E10.04125
G1 X149.456 Y160.328 E10.09419
G1 X148.565 Y160.29 E10.13868
G1 X147.673 Y160.212 E10.18335
G1 X147.039 Y160.138 E10.2152
G1 X146.576 Y160.069 E10.23855
G1 X145.621 Y159.882 E10.2871
G1 X144.753 Y159.634 E10.33214
G1 X143.777 Y159.257 E10.38434
G1 X142.904 Y158.825 E10.43293
G1 X142.073 Y158.319 E10.48147
G1 X141.345 Y157.785 E10.52652
G1 X140.561 Y157.094 E10.57865
G1 X139.938 Y156.44 E10.62372
G1 X139.288 Y155.621 E10.67588
G1 X138.755 Y154.807 E10.72442
G1 X138.326 Y154.012 E10.76949
G1 X137.913 Y153.052 E10.82163
G1 X137.611 Y152.127 E10.87018
G1 X137.406 Y151.247 E10.91526
G1 X137.268 Y150.283 E10.96384
G1 X137.215 Y149.414 E11.00728
G1 X137.197 Y148.333 E11.06121
G1 X137.205 Y147.399 E11.10781
G1 X137.257 Y146.426 E11.15643
G1 X137.395 Y145.464 E11.20491
G1 X137.599 Y144.584 E11.24998
G1 X137.924 Y143.59 E11.30215
G1 X138.28 Y142.76 E11.34721
G1 X138.758 Y141.871 E11.39757
G1 X139.315 Y141.028 E11.44798
G1 X139.877 Y140.321 E11.49304
G1 X140.596 Y139.563 E11.54516
G0 F6000 X140.332 Y139.262
G1 F1200 X141.037 Y138.643 E11.59196
G1 X141.878 Y138.025 E11.64403
G1 X142.771 Y137.486 E11.69607
G1 X143.645 Y137.059 E11.7446
G1 X144.52 Y136.72 E11.79142
G1 X145.597 Y136.411 E11.84732
G1 X146.585 Y136.223 E11.89749
G1 X147.084 Y136.153 E11.92263
G1 X148.066 Y136.059 E11.97185
G1 X148.616 Y136.044 E11.9993
G1 X151.387 Y136.044 E12.13754
G1 X152.289 Y136.084 E12.18259
G1 X152.919 Y136.155 E12.21422
G1 X153.435 Y136.229 E12.24022
G1 X154.358 Y136.402 E12.28707
G1 X155.329 Y136.672 E12.33736
G1 X156.339 Y137.055 E12.39125
G1 X157.245 Y137.495 E12.4415
G1 X158.021 Y137.958 E12.48658
G1 X158.897 Y138.592 E12.54053
G1 X159.658 Y139.254 E12.59085
G1 X160.31 Y139.928 E12.63763
G1 X161.012 Y140.799 E12.69344
G1 X161.55 Y141.608 E12.74192
G1 X162.002 Y142.43 E12.78872
G1 X162.449 Y143.454 E12.84446
G1 X162.757 Y144.379 E12.8931
G1 X162.998 Y145.395 E12.94519
G1 X163.13 Y146.288 E12.99023
G1 X163.192 Y147.197 E13.03569
G1 X163.203 Y147.901 E13.07081
G1 X163.186 Y149.356 E13.14341
G1 X163.128 Y150.362 E13.19368
G1 X163 Y151.256 E13.23874
G1 X162.745 Y152.342 E13.29439
G1 X162.461 Y153.199 E13.33943
G1 X162.018 Y154.223 E13.3951
G1 X161.587 Y155.017 E13.44017
G1 X160.971 Y155.946 E13.49578
G1 X160.407 Y156.652 E13.54086
G1 X159.636 Y157.457 E13.59647
G1 X158.957 Y158.053 E13.64155
G1 X158.084 Y158.691 E13.69549
G1 X157.186 Y159.228 E13.74769
G1 X156.279 Y159.666 E13.79794
G1 X155.436 Y159.989 E13.84298
G1 X154.352 Y160.295 E13.89918
G1 X153.249 Y160.494 E13.95509
G1 X152.58 Y160.579 E13.98874
G1 X151.426 Y160.689 E14.04657
G1 X150.534 Y160.728 E14.09112
G1 X149.439 Y160.728 E14.14575
G1 X148.548 Y160.69 E14.19024
G1 X147.627 Y160.609 E14.23637
G1 X146.98 Y160.534 E14.26886
G1 X146.499 Y160.462 E14.29313
G1 X145.544 Y160.275 E14.34168
G1 X144.643 Y160.019 E14.38841
G1 X143.6 Y159.616 E14.44419
G1 X142.696 Y159.167 E14.49455
G1 X141.836 Y158.642 E14.54482
G1 X141.108 Y158.108 E14.58986
G1 X140.271 Y157.37 E14.64553
G1 X139.648 Y156.716 E14.6906
G1 X138.953 Y155.84 E14.74638
G1 X138.42 Y155.026 E14.79493
G1 X137.974 Y154.202 E14.84167
G1 X137.533 Y153.176 E14.89739
G1 X137.221 Y152.218 E14.94765
G1 X137.016 Y151.338 E14.99273
G1 X136.872 Y150.34 E15.04304
G1 X136.815 Y149.421 E15.08897
G1 X136.797 Y148.33 E15.14341
G1 X136.806 Y147.378 E15.19091
G1 X136.861 Y146.369 E15.24132
G1 X137.005 Y145.374 E15.29148
G1 X137.209 Y144.494 E15.33655
G1 X137.556 Y143.432 E15.39229
G1 X137.912 Y142.602 E15.43735
G1 X138.424 Y141.65 E15.49127
G1 X138.981 Y140.807 E15.54168
G1 X139.564 Y140.072 E15.58849
G1 X140.332 Y139.262 E15.64418
G1 F2400 E12.64418
;MESH:shaftCouplingH2_19.stl
G0 F6000 X147.532 Y148.181
G0 X148.892 Y148.593
;TYPE:WALL-INNER
G1 F2400 E15.64418
G1 F872.7 X149.239 Y148.662 E15.66845
G1 F981.6 X149.624 Y148.71 E15.69211
G1 F1045.8 X150.157 Y148.722 E15.72263
G1 F1010.5 X150.637 Y148.681 E15.75117
G1 F890.5 X151.11 Y148.595 E15.78349
G0 F6000 X151.513 Y147.85
;TYPE:WALL-OUTER
G1 F961.9 X151.306 Y147.994 E15.79919
G1 F1173.6 X150.886 Y148.156 E15.82215
G1 F1200 X150.531 Y148.246 E15.84042
G1 X150.169 Y148.294 E15.85864
G1 X149.699 Y148.285 E15.88209
G1 X149.373 Y148.226 E15.89862
G1 X148.993 Y148.108 E15.91847
G1 F1173.6 X148.695 Y147.994 E15.93475
G1 F958.1 X148.487 Y147.851 E15.95052
G1 X148.406 Y148.187 E15.97212
G1 F1173.6 X148.398 Y148.506 E15.9884
G1 F1200 X148.4 Y149.027 E16.01439
G1 X148.648 Y149.063 E16.02689
G1 X149.053 Y149.105 E16.0472
G1 X149.552 Y149.14 E16.07216
G1 X150.008 Y149.15 E16.09492
G1 X150.467 Y149.139 E16.11782
G1 X150.947 Y149.106 E16.14183
G1 X151.599 Y149.035 E16.17455
G1 X151.601 Y148.597 E16.1964
G1 F1173.6 X151.593 Y148.186 E16.21737
G1 F961.9 X151.513 Y147.85 E16.23887
;MESH:NOMESH
G0 F300 X151.513 Y147.85 Z0.4
G0 F6000 X151.348 Y148.242
G0 X149.121 Y148.813
G0 X149.12 Y148.836
;TIME_ELAPSED:21.848436
;LAYER:1
M106 S85
;TYPE:WALL-INNER
;MESH:shaftCouplingH2_19.stl
G1 F438 X149.45 Y148.856 E16.2464
G1 F451.1 X149.8 Y148.892 E16.25418
G1 F467.8 X150.205 Y148.891 E16.26282
G1 F451.1 X150.552 Y148.856 E16.27053
G1 F439.6 X150.881 Y148.84 E16.27801
G0 F7500 X150.911 Y148.841
G1 F529.8 X151.329 Y148.85 E16.28588
G1 F566 X151.77 Y148.782 E16.29375
G1 X152.135 Y148.71 E16.30031
G1 X152.135 Y147.992 E16.31296
G1 X151.838 Y148.341 E16.32104
G1 X151.462 Y148.541 E16.32855
G1 X151.267 Y148.627 E16.33231
G1 F529.8 X150.911 Y148.841 E16.34013
G0 F7500 X149.12 Y148.836
G1 F496.9 X148.729 Y148.623 E16.34907
G1 F571.4 X148.606 Y148.574 E16.35138
G1 X148.168 Y148.354 E16.35994
G1 X147.863 Y147.988 E16.36826
G1 X147.864 Y148.712 E16.3809
G1 X148.237 Y148.784 E16.38754
G1 X148.673 Y148.852 E16.39524
G1 F496.9 X149.12 Y148.836 E16.40422
G1 F2400 E13.40422
G0 F7500 X148.086 Y148.579
G0 X147.454 Y149.051
;TYPE:WALL-OUTER
G1 F2400 E16.40422
G1 F600 X148.174 Y149.19 E16.41642
G1 X148.628 Y149.259 E16.42405
G1 F601.5 X148.976 Y149.298 E16.42986
G1 X149.562 Y149.34 E16.43961
G1 F600 X150.009 Y149.35 E16.44705
G1 X150.458 Y149.34 E16.45451
G1 X150.93 Y149.307 E16.46238
G1 X151.393 Y149.257 E16.47013
G1 X151.848 Y149.187 E16.47778
G1 X152.546 Y149.051 E16.48961
G1 X152.552 Y147.659 E16.51276
G1 X152.282 Y147.597 E16.51737
G1 X151.894 Y147.521 E16.52394
G1 X151.749 Y147.612 E16.52679
G1 X151.74 Y147.863 E16.53096
G1 X151.644 Y147.977 E16.53344
G1 X151.269 Y148.177 E16.54051
G1 X150.801 Y148.378 E16.54898
G1 X150.51 Y148.38 E16.55382
G1 X150.195 Y148.435 E16.55914
G1 X149.81 Y148.435 E16.56554
G1 X149.492 Y148.381 E16.5709
G1 X149.228 Y148.375 E16.5753
G1 X148.79 Y148.207 E16.5831
G1 X148.357 Y147.99 E16.59115
G1 X148.258 Y147.87 E16.59374
G1 X148.249 Y147.612 E16.59803
G1 X148.104 Y147.521 E16.60088
G1 X147.449 Y147.66 E16.61201
G1 X147.454 Y149.051 E16.63515
;MESH:NOMESH
G0 F300 X147.454 Y149.051 Z0.5
G0 F7500 X148.086 Y148.579
G0 X147.707 Y147.959
;TIME_ELAPSED:24.943416
;LAYER:2
M106 S170
;TYPE:WALL-INNER
;MESH:shaftCouplingH2_19.stl
G1 F490.8 X147.537 Y147.997 E16.63869
G1 X147.538 Y148.7 E16.65298
G1 X147.808 Y148.765 E16.65863
G1 X148.264 Y148.854 E16.66807
G1 F420.3 X148.698 Y148.837 E16.67838
G1 X148.357 Y148.568 E16.68869
G1 F490.8 X148.279 Y148.528 E16.69048
G1 X147.93 Y148.313 E16.69881
G1 X147.722 Y148.039 E16.7058
G1 X147.707 Y147.959 E16.70746
G0 F9000 X147.741 Y148.441
G0 X148.175 Y148.667
G0 X148.698 Y148.837
G1 F376.2 X149.07 Y148.892 E16.71743
G1 F413.8 X149.431 Y148.962 E16.7263
G1 F464.2 X149.809 Y149 E16.73446
G1 F483.9 X150.192 Y149 E16.74236
G1 F463.3 X150.584 Y148.96 E16.75085
G1 F413.1 X150.933 Y148.892 E16.75944
G1 F384.6 X151.17 Y148.866 E16.76562
G0 F9000 X152.009 Y148.592
G0 X152.258 Y148.441
G0 X152.292 Y147.959
G1 F490.8 X152.276 Y148.039 E16.76728
G1 X152.069 Y148.312 E16.77425
G1 X151.641 Y148.571 E16.78442
G1 F430.9 X151.17 Y148.866 E16.79729
G1 F398 X151.307 Y148.874 E16.80073
G1 F449.4 X151.741 Y148.853 E16.81037
G1 F490.8 X152.192 Y148.765 E16.81972
G1 X152.461 Y148.7 E16.82534
G1 X152.463 Y147.998 E16.83961
G1 X152.292 Y147.959 E16.84318
