;FLAVOR:Marlin
;TIME:2511
;Filament used: 0.569413m
;Layer height: 0.1
;MINX:128.562
;MINY:128.782
;MINZ:0.3
;MAXX:171.431
;MAXY:171.206
;MAXZ:7.8
;Generated with Cura_SteamEngine 5.3.0
M140 S60
M105
M190 S60
M104 S210
M105
M109 S210
M82 ;absolute extrusion mode
M201 X500.00 Y500.00 Z100.00 E5000.00 ;Setup machine max acceleration
M203 X500.00 Y500.00 Z10.00 E50.00 ;Setup machine max feedrate
M204 P500.00 R1000.00 T500.00 ;Setup Print/Retract/Travel acceleration
M205 X8.00 Y8.00 Z0.40 E5.00 ;Setup Jerk
M220 S100 ;Reset Feedrate
M221 S100 ;Reset Flowrate

G28 ;Home

G92 E0 ;Reset Extruder
G1 Z2.0 F3000 ;Move Z Axis up
G1 X10.1 Y20 Z0.28 F5000.0 ;Move to start position
G1 X10.1 Y200.0 Z0.28 F1500.0 E15 ;Draw the first line
G1 X10.4 Y200.0 Z0.28 F5000.0 ;Move to side a little
G1 X10.4 Y20 Z0.28 F1500.0 E30 ;Draw the second line
G92 E0 ;Reset Extruder
G1 Z2.0 F3000 ;Move Z Axis up

G92 E0
G92 E0
G1 F2400 E-3
;LAYER_COUNT:76
;LAYER:0
M107
G0 F6000 X135.344 Y135.471 Z0.3
;TYPE:SKIRT
G1 F2400 E0
G1 F1200 X135.81 Y135.015 E0.03253
G1 X136.26 Y134.6 E0.06307
G1 X136.803 Y134.139 E0.0986
G1 X137.379 Y133.676 E0.13547
G1 X137.868 Y133.306 E0.16607
G1 X138.536 Y132.843 E0.20662
G1 X139.101 Y132.477 E0.2402
G1 X139.651 Y132.145 E0.27225
G1 X140.349 Y131.762 E0.31197
G1 X140.936 Y131.461 E0.34489
G1 X141.544 Y131.174 E0.37843
G1 X142.234 Y130.883 E0.41579
G1 X142.86 Y130.638 E0.44933
G1 X143.572 Y130.389 E0.48696
G1 X144.421 Y130.132 E0.53121
G1 X145.084 Y129.949 E0.56553
G1 X145.964 Y129.747 E0.61057
G1 X146.859 Y129.624 E0.65564
G1 X147.925 Y129.582 E0.70887
G1 X149.045 Y129.596 E0.76475
G1 X152.16 Y129.594 E0.92016
G1 X153.062 Y129.633 E0.9652
G1 X153.957 Y129.752 E1.01025
G1 X154.492 Y129.863 E1.03751
G1 X155.171 Y130.022 E1.0723
G1 X156.057 Y130.272 E1.11823
G1 X156.681 Y130.479 E1.15103
G1 X157.45 Y130.755 E1.19179
G1 X158.07 Y131.005 E1.22514
G1 X158.764 Y131.318 E1.26312
G1 X159.34 Y131.597 E1.29505
G1 X159.865 Y131.87 E1.32457
G1 X160.447 Y132.206 E1.3581
G1 X161.165 Y132.647 E1.40014
G1 X161.756 Y133.038 E1.43549
G1 X162.384 Y133.496 E1.47427
G1 X162.92 Y133.91 E1.50806
G1 X163.358 Y134.268 E1.53628
G1 X163.856 Y134.709 E1.56947
G1 X164.201 Y135.032 E1.59305
G1 X164.525 Y135.349 E1.61566
G1 X165.04 Y135.876 E1.65242
G1 X165.642 Y136.549 E1.69747
G1 X166.182 Y137.273 E1.74253
G1 X166.629 Y137.994 E1.78486
G1 X167.187 Y138.984 E1.84155
G1 X168.749 Y141.663 E1.99627
G1 X169.169 Y142.463 E2.04135
G1 X169.516 Y143.296 E2.08637
G1 X169.723 Y143.923 E2.11931
G1 X169.883 Y144.467 E2.1476
G1 X170.049 Y145.108 E2.18063
G1 X170.158 Y145.593 E2.20543
G1 X170.332 Y146.472 E2.25014
G1 X170.431 Y147.08 E2.28087
G1 X170.523 Y147.853 E2.31971
G1 X170.587 Y148.573 E2.35577
G1 X170.626 Y149.352 E2.39468
G1 X170.631 Y150.165 E2.43525
G1 X170.619 Y150.786 E2.46623
G1 X170.589 Y151.392 E2.4965
G1 X170.52 Y152.163 E2.53512
G1 X170.443 Y152.809 E2.56758
G1 X170.361 Y153.365 E2.59562
G1 X170.211 Y154.153 E2.63564
G1 X170.008 Y155.051 E2.68157
G1 X169.812 Y155.79 E2.71971
G1 X169.691 Y156.185 E2.74032
G1 X169.388 Y157.035 E2.78534
G1 X169.012 Y157.856 E2.8304
G1 X168.775 Y158.291 E2.85511
G1 X168.363 Y159.004 E2.89619
G1 X167.67 Y160.163 E2.96356
G1 X167.064 Y161.25 E3.02565
G1 X166.568 Y162.115 E3.0754
G1 X166.085 Y162.878 E3.12045
G1 X165.536 Y163.595 E3.1655
G1 X164.775 Y164.407 E3.22103
G1 X163.969 Y165.179 E3.27671
G1 X163.462 Y165.64 E3.31089
G1 X163.028 Y166.006 E3.33922
G1 X162.404 Y166.491 E3.37865
G1 X161.85 Y166.895 E3.41285
G1 X161.31 Y167.263 E3.44546
G1 X160.575 Y167.719 E3.48861
G1 X160.003 Y168.049 E3.52156
G1 X159.516 Y168.313 E3.54919
G1 X158.802 Y168.663 E3.58886
G1 X158.104 Y168.978 E3.62707
G1 X157.537 Y169.214 E3.65771
G1 X156.819 Y169.477 E3.69586
G1 X156.209 Y169.68 E3.72793
G1 X155.648 Y169.849 E3.75716
G1 X155.163 Y169.98 E3.78223
G1 X154.581 Y170.124 E3.81214
G1 X153.694 Y170.296 E3.85721
G1 X152.796 Y170.389 E3.90226
G1 X152.123 Y170.406 E3.93584
G1 X149.407 Y170.386 E4.07135
G1 X148.215 Y170.406 E4.13083
G1 X147.77 Y170.405 E4.15303
G1 X146.868 Y170.363 E4.19808
G1 X145.973 Y170.241 E4.24314
G1 X145.357 Y170.11 E4.27456
G1 X144.678 Y169.938 E4.30951
G1 X144.14 Y169.784 E4.33743
G1 X143.559 Y169.605 E4.36776
G1 X142.958 Y169.399 E4.39945
G1 X142.186 Y169.098 E4.44079
G1 X141.555 Y168.829 E4.47501
G1 X141.004 Y168.575 E4.50528
G1 X140.283 Y168.204 E4.54574
G1 X139.694 Y167.878 E4.57932
G1 X139.155 Y167.558 E4.6106
G1 X138.435 Y167.089 E4.65347
G1 X137.907 Y166.721 E4.68557
G1 X137.399 Y166.343 E4.71717
G1 X136.754 Y165.821 E4.75856
G1 X136.361 Y165.483 E4.78442
G1 X135.904 Y165.065 E4.81532
G1 X135.339 Y164.516 E4.85463
G1 X134.88 Y164.046 E4.8874
G1 X134.286 Y163.366 E4.93245
G1 X133.755 Y162.635 E4.97752
G1 X133.369 Y162.004 E5.01443
G1 X132.91 Y161.188 E5.06114
G1 X131.978 Y159.604 E5.15283
G1 X131.891 Y159.44 E5.16209
G1 X131.236 Y158.309 E5.22729
G1 X130.818 Y157.509 E5.27233
G1 X130.473 Y156.674 E5.3174
G1 X130.239 Y155.943 E5.35569
G1 X130.023 Y155.155 E5.39646
G1 X129.881 Y154.585 E5.42576
G1 X129.738 Y153.918 E5.4598
G1 X129.611 Y153.167 E5.49779
G1 X129.512 Y152.464 E5.53321
G1 X129.437 Y151.758 E5.56863
G1 X129.389 Y150.992 E5.60692
G1 X129.366 Y150.345 E5.63922
G1 X129.362 Y149.79 E5.66691
G1 X129.385 Y149.088 E5.70196
G1 X129.432 Y148.33 E5.73985
G1 X129.483 Y147.761 E5.76835
G1 X129.58 Y147.033 E5.80499
G1 X129.721 Y146.177 E5.84827
G1 X129.881 Y145.397 E5.88799
G1 X130.063 Y144.679 E5.92495
G1 X130.247 Y144.027 E5.95875
G1 X130.531 Y143.169 E6.00384
G1 X130.889 Y142.34 E6.04889
G1 X131.255 Y141.656 E6.08759
G1 X131.81 Y140.706 E6.14248
G1 X132.1 Y140.225 E6.1705
G1 X132.762 Y139.048 E6.23787
G1 X133.41 Y137.921 E6.30273
G1 X133.895 Y137.159 E6.3478
G1 X134.445 Y136.442 E6.39288
G1 X134.979 Y135.846 E6.4328
G1 X135.344 Y135.471 E6.45891
G0 F6000 X135.064 Y135.185
G1 F1200 X135.539 Y134.721 E6.49204
G1 X136.001 Y134.295 E6.52339
G1 X136.552 Y133.827 E6.55946
G1 X137.138 Y133.357 E6.59694
G1 X137.64 Y132.977 E6.62835
G1 X138.319 Y132.507 E6.66955
G1 X138.894 Y132.135 E6.70371
G1 X139.459 Y131.794 E6.73664
G1 X140.166 Y131.406 E6.77687
G1 X140.765 Y131.099 E6.81045
G1 X141.389 Y130.805 E6.84487
G1 X142.088 Y130.511 E6.8827
G1 X142.728 Y130.26 E6.917
G1 X143.456 Y130.006 E6.95546
G1 X144.315 Y129.746 E7.00024
G1 X144.995 Y129.559 E7.03542
G1 X145.875 Y129.357 E7.08047
G1 X146.843 Y129.224 E7.12922
G1 X147.93 Y129.182 E7.18349
G1 X149.05 Y129.196 E7.23937
G1 X152.177 Y129.194 E7.39538
G1 X153.115 Y129.236 E7.44222
G1 X154.01 Y129.355 E7.48726
G1 X154.583 Y129.474 E7.51646
G1 X155.28 Y129.637 E7.55217
G1 X156.183 Y129.892 E7.59899
G1 X156.816 Y130.103 E7.63227
G1 X157.6 Y130.384 E7.67382
G1 X158.234 Y130.64 E7.70794
G1 X158.938 Y130.958 E7.74648
G1 X159.525 Y131.242 E7.77901
G1 X160.05 Y131.515 E7.80853
G1 X160.656 Y131.865 E7.84344
G1 X161.386 Y132.313 E7.88618
G1 X161.992 Y132.715 E7.92246
G1 X162.629 Y133.179 E7.96177
G1 X163.173 Y133.6 E7.99609
G1 X163.623 Y133.969 E8.02513
G1 X164.129 Y134.417 E8.05884
G1 X164.481 Y134.746 E8.08288
G1 X164.811 Y135.069 E8.10592
G1 X165.338 Y135.609 E8.14356
G1 X165.963 Y136.31 E8.19042
G1 X166.503 Y137.034 E8.23548
G1 X166.969 Y137.783 E8.27949
G1 X167.533 Y138.783 E8.33677
G1 X169.103 Y141.477 E8.49233
G1 X169.538 Y142.309 E8.53917
G1 X169.896 Y143.171 E8.58574
G1 X170.107 Y143.81 E8.61931
G1 X170.27 Y144.367 E8.64826
G1 X170.439 Y145.02 E8.68191
G1 X170.55 Y145.515 E8.70722
G1 X170.727 Y146.408 E8.75264
G1 X170.828 Y147.033 E8.78423
G1 X170.921 Y147.818 E8.82367
G1 X170.986 Y148.553 E8.86048
G1 X171.026 Y149.35 E8.90029
G1 X171.031 Y150.173 E8.94135
G1 X171.019 Y150.806 E8.97294
G1 X170.989 Y151.412 E9.00321
G1 X170.917 Y152.21 E9.04318
G1 X170.839 Y152.867 E9.07619
G1 X170.754 Y153.44 E9.10509
G1 X170.601 Y154.241 E9.14577
G1 X170.395 Y155.154 E9.19247
G1 X170.199 Y155.893 E9.23061
G1 X170.068 Y156.319 E9.25285
G1 X169.752 Y157.202 E9.29964
G1 X169.376 Y158.023 E9.34469
G1 X169.121 Y158.491 E9.37128
G1 X168.706 Y159.209 E9.41265
G1 X168.013 Y160.368 E9.48002
G1 X167.411 Y161.449 E9.54175
G1 X166.906 Y162.329 E9.59237
G1 X166.403 Y163.121 E9.63918
G1 X165.828 Y163.869 E9.68625
G1 X165.052 Y164.696 E9.74283
G1 X164.238 Y165.475 E9.79904
G1 X163.72 Y165.946 E9.83397
G1 X163.273 Y166.322 E9.86311
G1 X162.64 Y166.814 E9.90311
G1 X162.075 Y167.226 E9.93799
G1 X161.521 Y167.603 E9.97143
G1 X160.775 Y168.065 E10.0152
G1 X160.194 Y168.401 E10.04869
G1 X159.692 Y168.672 E10.07715
G1 X158.967 Y169.028 E10.11745
G1 X158.258 Y169.347 E10.15623
G1 X157.675 Y169.59 E10.18774
G1 X156.945 Y169.857 E10.22652
G1 X156.324 Y170.063 E10.25917
G1 X155.752 Y170.235 E10.28896
G1 X155.259 Y170.368 E10.31444
G1 X154.657 Y170.517 E10.34538
G1 X153.77 Y170.689 E10.39046
G1 X152.806 Y170.789 E10.43881
G1 X152.12 Y170.806 E10.47304
G1 X149.411 Y170.786 E10.6082
G1 X148.222 Y170.806 E10.66753
G1 X147.751 Y170.805 E10.69103
G1 X146.849 Y170.763 E10.73608
G1 X145.89 Y170.632 E10.78437
G1 X145.259 Y170.498 E10.81655
G1 X144.568 Y170.323 E10.85211
G1 X144.022 Y170.166 E10.88045
G1 X143.429 Y169.983 E10.91142
G1 X142.813 Y169.772 E10.9439
G1 X142.029 Y169.466 E10.98589
G1 X141.388 Y169.192 E11.02067
G1 X140.821 Y168.931 E11.05181
G1 X140.089 Y168.554 E11.09289
G1 X139.49 Y168.222 E11.12706
G1 X138.937 Y167.893 E11.15916
G1 X138.206 Y167.417 E11.20268
G1 X137.668 Y167.042 E11.2354
G1 X137.147 Y166.654 E11.2678
G1 X136.493 Y166.124 E11.3098
G1 X136.091 Y165.778 E11.33626
G1 X135.625 Y165.352 E11.36776
G1 X135.053 Y164.795 E11.40759
G1 X134.579 Y164.309 E11.44146
G1 X133.962 Y163.601 E11.48832
G1 X133.431 Y162.87 E11.53339
G1 X133.02 Y162.2 E11.57261
G1 X132.561 Y161.384 E11.61932
G1 X131.633 Y159.807 E11.7106
G1 X131.545 Y159.64 E11.72002
G1 X130.881 Y158.494 E11.7861
G1 X130.448 Y157.662 E11.83289
G1 X130.103 Y156.827 E11.87797
G1 X129.853 Y156.049 E11.91874
G1 X129.635 Y155.252 E11.95996
G1 X129.49 Y154.669 E11.98993
G1 X129.344 Y153.985 E12.02483
G1 X129.215 Y153.223 E12.06338
G1 X129.114 Y152.506 E12.09951
G1 X129.038 Y151.783 E12.13578
G1 X128.989 Y151.006 E12.17462
G1 X128.966 Y150.348 E12.20747
G1 X128.962 Y149.777 E12.23595
G1 X128.986 Y149.063 E12.2716
G1 X129.034 Y148.294 E12.31004
G1 X129.087 Y147.708 E12.33939
G1 X129.185 Y146.968 E12.37663
G1 X129.329 Y146.097 E12.42068
G1 X129.493 Y145.299 E12.46132
G1 X129.678 Y144.57 E12.49884
G1 X129.867 Y143.901 E12.53353
G1 X130.151 Y143.043 E12.57862
G1 X130.536 Y142.151 E12.62709
G1 X130.91 Y141.454 E12.66655
G1 X131.467 Y140.499 E12.72171
G1 X131.757 Y140.018 E12.74973
G1 X132.415 Y138.849 E12.81665
G1 X133.073 Y137.706 E12.88245
G1 X133.558 Y136.944 E12.92752
G1 X134.147 Y136.175 E12.97584
G1 X134.692 Y135.567 E13.01658
G1 X135.064 Y135.185 E13.04318
G0 F6000 X134.784 Y134.899
G1 F1200 X135.268 Y134.427 E13.07691
G1 X135.742 Y133.99 E13.10907
G1 X136.302 Y133.515 E13.14571
G1 X136.897 Y133.038 E13.18375
G1 X137.412 Y132.648 E13.21598
G1 X138.102 Y132.171 E13.25783
G1 X138.687 Y131.793 E13.29258
G1 X139.267 Y131.443 E13.32638
G1 X139.984 Y131.05 E13.36717
G1 X140.595 Y130.737 E13.40142
G1 X141.234 Y130.436 E13.43666
G1 X141.942 Y130.139 E13.47496
G1 X142.596 Y129.882 E13.51002
G1 X143.34 Y129.623 E13.54932
G1 X144.209 Y129.36 E13.59462
G1 X144.906 Y129.169 E13.63068
G1 X145.786 Y128.967 E13.67572
G1 X146.828 Y128.824 E13.72819
G1 X147.935 Y128.782 E13.78346
G1 X149.055 Y128.796 E13.83934
G1 X152.195 Y128.794 E13.996
G1 X153.168 Y128.839 E14.04459
G1 X154.063 Y128.958 E14.08964
G1 X154.674 Y129.085 E14.12077
G1 X155.389 Y129.252 E14.15741
G1 X156.292 Y129.507 E14.20422
G1 X156.951 Y129.726 E14.23886
G1 X157.75 Y130.013 E14.28122
G1 X158.399 Y130.275 E14.31614
G1 X159.112 Y130.598 E14.35519
G1 X159.71 Y130.887 E14.38832
G1 X160.235 Y131.16 E14.41785
G1 X160.865 Y131.524 E14.45415
G1 X161.607 Y131.98 E14.4976
G1 X162.228 Y132.392 E14.53478
G1 X162.874 Y132.863 E14.57466
G1 X163.427 Y133.291 E14.60955
G1 X163.888 Y133.67 E14.63932
G1 X164.402 Y134.125 E14.67357
G1 X164.761 Y134.46 E14.69807
G1 X165.097 Y134.79 E14.72156
G1 X165.637 Y135.343 E14.76013
G1 X166.284 Y136.071 E14.80872
G1 X166.824 Y136.795 E14.85378
G1 X167.317 Y137.586 E14.90028
G1 X167.879 Y138.582 E14.95733
G1 X169.449 Y141.276 E15.1129
G1 X169.907 Y142.156 E15.16239
G1 X170.276 Y143.046 E15.21046
G1 X170.491 Y143.698 E15.24471
G1 X170.657 Y144.267 E15.27428
G1 X170.829 Y144.932 E15.30855
G1 X170.942 Y145.437 E15.33437
G1 X171.122 Y146.344 E15.3805
G1 X171.225 Y146.986 E15.41294
G1 X171.319 Y147.783 E15.45298
G1 X171.385 Y148.533 E15.49054
G1 X171.426 Y149.348 E15.53125
G1 X171.431 Y150.181 E15.57281
G1 X171.419 Y150.826 E15.60499
G1 X171.389 Y151.432 E15.63526
G1 X171.314 Y152.257 E15.67659
G1 X171.235 Y152.926 E15.7102
G1 X171.147 Y153.515 E15.73991
G1 X170.991 Y154.329 E15.78126
G1 X170.782 Y155.257 E15.82872
G1 X170.581 Y156.011 E15.86765
G1 X170.445 Y156.454 E15.89077
G1 X170.116 Y157.369 E15.93928
G1 X169.74 Y158.19 E15.98433
G1 X169.467 Y158.691 E16.0128
G1 X169.049 Y159.414 E16.05446
G1 X168.356 Y160.573 E16.12183
G1 X167.758 Y161.648 E16.18321
G1 X167.244 Y162.543 E16.2347
G1 X166.72 Y163.365 E16.28333
G1 X166.12 Y164.143 E16.33235
G1 X165.329 Y164.985 E16.38998
G1 X164.507 Y165.771 E16.44672
G1 X163.977 Y166.252 E16.48243
G1 X163.518 Y166.638 E16.51235
G1 X162.876 Y167.137 E16.55292
G1 X162.3 Y167.557 E16.58848
G1 X161.732 Y167.943 E16.62275
G1 X160.975 Y168.411 E16.66715
G1 X160.384 Y168.753 E16.70121
G1 X159.868 Y169.031 E16.73046
G1 X159.131 Y169.393 E16.77142
G1 X158.412 Y169.716 E16.81075
G1 X157.812 Y169.966 E16.84317
G1 X157.071 Y170.237 E16.88254
G1 X156.439 Y170.446 E16.91575
G1 X155.856 Y170.621 E16.94612
G1 X155.355 Y170.756 E16.972
G1 X154.733 Y170.91 E17.00397
G1 X153.846 Y171.082 E17.04905
G1 X152.816 Y171.189 E17.10071
G1 X152.117 Y171.206 E17.13559
G1 X149.415 Y171.186 E17.2704
G1 X148.221 Y171.206 E17.32998
G1 X147.732 Y171.205 E17.35438
G1 X146.83 Y171.163 E17.39943
G1 X145.807 Y171.023 E17.45094
G1 X145.161 Y170.886 E17.48388
G1 X144.457 Y170.707 E17.52012
G1 X143.904 Y170.548 E17.54883
G1 X143.299 Y170.361 E17.58042
G1 X142.668 Y170.145 E17.6137
G1 X141.872 Y169.834 E17.65633
G1 X141.221 Y169.555 E17.69167
G1 X140.638 Y169.287 E17.72368
G1 X139.895 Y168.904 E17.76539
G1 X139.285 Y168.566 E17.80018
G1 X138.732 Y168.237 E17.83228
G1 X137.977 Y167.745 E17.87724
G1 X137.429 Y167.363 E17.91057
G1 X136.895 Y166.965 E17.94379
G1 X136.232 Y166.427 E17.98639
G1 X135.821 Y166.073 E18.01345
G1 X135.346 Y165.639 E18.04555
G1 X134.767 Y165.074 E18.08591
G1 X134.277 Y164.572 E18.12091
G1 X133.66 Y163.864 E18.16776
G1 X133.107 Y163.105 E18.21462
G1 X132.671 Y162.396 E18.25614
G1 X132.212 Y161.58 E18.30285
G1 X131.279 Y159.993 E18.3947
G1 X131.199 Y159.841 E18.40326
G1 X130.526 Y158.679 E18.47026
G1 X130.078 Y157.815 E18.51881
G1 X129.733 Y156.98 E18.56389
G1 X129.467 Y156.155 E18.60713
G1 X129.247 Y155.349 E18.64882
G1 X129.099 Y154.752 E18.6795
G1 X128.95 Y154.052 E18.71521
G1 X128.819 Y153.279 E18.75432
G1 X128.716 Y152.548 E18.79115
G1 X128.639 Y151.808 E18.82827
G1 X128.589 Y151.02 E18.86766
G1 X128.566 Y150.351 E18.90106
G1 X128.562 Y149.764 E18.93035
G1 X128.587 Y149.038 E18.96659
G1 X128.636 Y148.258 E19.00558
G1 X128.69 Y147.655 E19.03578
G1 X128.79 Y146.903 E19.07363
G1 X128.937 Y146.016 E19.11849
G1 X129.105 Y145.201 E19.16
G1 X129.293 Y144.461 E19.19809
G1 X129.487 Y143.775 E19.23366
G1 X129.771 Y142.917 E19.27875
G1 X130.169 Y141.992 E19.32899
G1 X130.564 Y141.252 E19.37084
G1 X131.124 Y140.292 E19.42629
G1 X131.414 Y139.811 E19.45431
G1 X132.068 Y138.649 E19.52083
G1 X132.726 Y137.506 E19.58663
G1 X133.24 Y136.701 E19.63428
